X: 633
T:O'Carolan's Concerto
M:2/4
L:1/16
B:O'Neill's 633
N:"Animated."
Z:Transcribed by Ted Hastings, ted@hastings.nu
K:D
ABC|d2dd d2cB|ABGA F2A2|E2A2 D2A2|Bcde dcBA|
d2a2 fgaf|efge fgaf|gabg fdfa|gfed dcBA|
BdBd gBgB|AdAd fAfA|GBGB efed|dc2Bc A3G|
FGAF EFGE|FGAF GABG|A2d2 fedc|d6 z2:|
d2b2 agfe|d2a2 c2a2|B2gB ABcd|ecBA d2df|
edcB caaa|Bggg Afff|edcB caaa|Bggg bgbg|
afaf edcB|cABG AFGE|DAFA DAFA|GEBE GEBE|
EAdc BAGF|EFGA Bcde|A2d2 fedc|d4 d:|
